T: Kevin Loughlin's
M: 6/8
L: 1/8
K: Dmaj
A|d2 f edB|BAd BAF|D3 BAF|E3 EFA|
def edB|BAd BAF|GBd AFD|EGE D2 :||
g|f3 dfa|g3 bag|f3 dfa|g3 eag|
f2 d dc=c|B3 GBd|a3 baf|gec d2 :||
